X: 11281
T: Dying Rebel, The
R: polka
M: 2/4
K: Gmajor
D"D7" GA||"G"(B4|B2)A/B/"Am"AG"G"|E(D3|D)ddd|"C"(e4|
e)d"G"Bd|"Em"(B4|B)d"C"ed|"G"(B4|B)A"Am"AG|"G"ED3|
DDGA|"Bm"(d4|d)A/B/"D7"cB|"G"(G4|G)||

